public/illustrations/_elected.svg

<svg width="275" height="193" viewBox="0 0 275 193" fill="none" xmlns="http://www.w3.org/2000/svg">
<path d="M94.7605 88.8293C90.4704 83.5482 85.4159 78.9467 82.0886 73.3541C66.7831 47.628 79.738 12.4157 107.999 2.33479C132.224 -6.34442 158.574 10.0652 162.453 36.7966C165.483 58.0203 158.064 75.0674 140.422 87.5835L137.916 89.2542C138.667 89.7497 139.304 90.0755 140.097 90.4294C178.183 100.935 203.386 125.84 219.187 161.095C221.679 167.056 223.859 173.073 225.714 179.161C227.64 185.561 224.921 189.072 218.295 189.171C149.201 190.191 80.1063 191.21 10.8846 192.201C2.77163 192.343 -1.82987 186.099 0.690378 178.425C11.7341 144.303 31.8252 117.345 63.5831 99.8589C73.0269 94.8043 83.1361 91.0949 93.5144 89.0703C93.8259 89.0136 94.1659 88.8154 94.4774 88.7446L94.7464 88.8152L94.7605 88.8293ZM111.071 104.418C107.546 108.736 104.445 112.588 101.075 116.368C97.0683 120.856 94.5057 121.621 89.1679 119.143C83.377 116.694 77.8692 113.72 72.4464 110.492C71.3704 109.614 69.9968 109.246 68.6942 109.175C67.3916 109.119 65.9333 109.6 64.8572 110.336C41.5945 124.113 25.3546 143.906 14.679 168.585C12.81 172.776 11.4085 177.377 9.52538 182.149C13.9146 182.177 17.4541 182.106 21.0929 182.22C47.2298 182.135 47.2724 182.007 68.6095 166.674C87.0866 153.209 103.624 137.167 117.4 118.902C118.278 117.826 118.816 115.32 118.32 114.457C116.055 110.903 113.719 107.632 111.071 104.418ZM86.7043 38.071C86.1946 41.016 85.6848 43.9609 85.5007 46.8351C85.3449 49.5819 85.5006 52.2577 85.8121 54.8487C87.8935 74.1894 105.507 87.6403 123.587 83.7608C149.767 78.1115 162.382 44.1308 145.887 22.7655C144.514 21.3638 142.673 20.5708 140.776 20.5C135.877 20.1885 130.978 20.9107 126.179 20.2027C115.913 18.5887 106.526 20.7268 97.1816 25.3708C94.5056 26.546 92.2827 28.2874 90.4846 30.5953C88.6864 32.889 87.3978 35.4798 86.789 38.2408L86.6901 38.071H86.7043ZM122.766 180.662L215.152 179.232C211.187 159.806 189.17 126.392 176.753 120.814C161.575 142.66 143.042 161.675 122.766 180.676V180.662ZM169.391 114.414C161.873 109.147 153.477 104.956 144.712 102.124C144.16 101.983 143.551 102.096 143.027 102.393C142.546 102.549 141.98 102.988 141.598 103.328C139.205 106.202 136.939 109.104 134.787 112.191C117.811 136.331 98.1587 157.838 73.9757 175.027C71.2572 176.924 68.6801 178.864 65.1829 181.441C67.6606 181.526 68.9918 181.441 70.436 181.554C78.0959 181.441 85.9112 180.775 93.5144 181.37C103.737 182.092 111.652 177.788 118.42 171.275C133.527 156.748 148.762 142.25 161.165 125.231C163.741 121.678 166.432 118.293 169.533 114.442L169.391 114.4V114.414ZM80.885 102.662L80.8283 103.965C84.5662 105.862 88.1768 107.717 91.943 109.487C92.3536 109.6 92.7641 109.713 93.2454 109.544C93.6985 109.515 94.0808 109.19 94.2932 108.949C97.1107 105.608 99.8294 102.096 102.647 98.7403L101.953 97.5229L80.8991 102.648L80.885 102.662ZM132.578 98.684L119.354 97.1406L118.788 98.16L125.867 107.717L132.578 98.684Z" fill="#102185"/>
<path d="M247.164 26.9134C247.461 31.5857 247.603 36.1165 248.042 40.7888C248.92 51.4078 253.606 56.3492 264.225 58.1615C265.924 58.4446 267.482 58.7138 269.181 58.9969C272.012 59.5633 273.995 60.965 274.15 63.9383C274.15 66.9116 272.465 68.6105 269.492 69.191C266.236 69.9131 262.979 70.6209 259.723 71.4846C251.652 73.7641 247.56 79.0172 247.306 87.3708C247.036 95.158 246.782 103.087 246.513 110.874C246.385 115.688 244.969 117.953 241.996 118.25C239.023 118.534 236.191 115.716 235.752 111.185C235.172 105.947 235.016 100.708 234.152 95.4695C233.288 89.6644 232 83.8592 230.428 78.2099C228.432 71.2722 223.604 67.3222 215.958 67.1948C214.825 67.1948 213.693 66.9117 212.56 66.5011C209.445 65.6515 207.18 63.9663 207.873 60.1435C208.44 57.1702 211.966 54.891 215.222 55.1742C225.133 55.9954 233.614 50.3175 235.582 40.6896C236.701 35.1678 236.686 29.2214 236.955 23.558C237.097 20.5847 236.516 17.6114 237.224 14.7797C237.508 13.0807 239.476 10.8151 240.892 10.6593C242.591 10.5178 244.856 11.9195 246.13 13.1938C247.121 14.3265 247.136 16.592 247.277 18.291C247.419 21.1227 247.277 23.9544 247.291 26.7862H247.008L247.15 26.9275L247.164 26.9134ZM231.957 61.772L240.198 74.2174L248.962 65.1415L240.297 55.2447L231.957 61.772Z" fill="#102185"/>
<path d="M117.811 61.8005C115.404 62.027 112.94 61.3614 110.845 59.9031C108.976 58.6572 107.121 57.4253 105.323 55.9103C104.856 55.4855 104.516 55.1033 104.218 54.5795C103.921 54.0556 103.794 53.4327 103.808 52.8522C103.808 52.2717 103.836 51.6912 103.978 51.139C104.119 50.5868 104.416 50.077 104.827 49.6098C105.11 49.1001 105.535 48.633 106.059 48.3357C106.583 48.0383 107.107 47.7408 107.687 47.7549C108.31 47.6275 108.891 47.6417 109.443 47.7975C109.995 47.9532 110.533 48.0948 111.015 48.5196C115.206 52.0026 119.878 52.1017 124.819 51.6911C126.023 51.5778 127.255 51.9178 128.104 52.5832C129.081 53.2912 129.676 54.3387 129.789 55.5422C129.902 56.7456 129.746 57.8784 128.897 58.827C128.189 59.804 127.283 60.4412 126.037 60.6961C123.276 61.1208 120.43 61.3758 117.612 61.489L117.811 61.843V61.8005Z" fill="#102185"/>
<path d="M106.201 35.4515C107.22 32.7897 109.103 31.2464 112.006 31.8977C112.685 32.0818 113.237 32.2376 113.846 32.6907C114.314 33.1154 114.795 33.5401 115.092 34.0498C115.389 34.5596 115.659 35.2251 115.602 35.9472C115.729 36.5702 115.545 37.2499 115.39 37.8021C115.234 38.3543 115.05 39.0338 114.639 39.501C114.215 39.9683 113.79 40.4495 113.138 40.7043C112.487 40.9592 111.963 41.2708 111.241 41.2142C110.618 41.3416 109.939 41.1577 109.386 41.0019C106.512 40.2232 105.634 38.071 106.102 35.2676L106.201 35.4374V35.4515Z" fill="#102185"/>
<path d="M134.731 41.1578C134.589 41.71 134.292 42.2198 133.881 42.687C133.471 43.1543 133.074 43.4941 132.551 43.7915C132.027 44.0888 131.404 44.2163 130.823 44.2021C130.243 44.2021 129.662 44.1736 129.11 44.032C128.558 43.8905 127.878 43.6922 127.411 43.2816C126.944 42.8568 126.462 42.4321 126.165 41.9224C125.868 41.4127 125.599 40.7473 125.613 40.1526C125.485 39.5296 125.669 38.8499 125.825 38.2978C125.981 37.7456 126.165 37.066 126.576 36.5988C127 36.1316 127.425 35.6503 127.935 35.353C128.445 35.0557 129.082 34.9281 129.705 34.8006C130.328 34.6732 130.866 34.8288 131.559 35.0129C132.253 35.1969 132.749 35.4803 133.23 35.905C133.697 36.3298 134.179 36.7546 134.434 37.4059C134.731 37.9298 135 38.5809 134.943 39.303C135.071 39.9259 134.887 40.6058 134.703 41.2854L134.745 41.1436L134.731 41.1578Z" fill="#102185"/>
</svg>

<svg xmlns="http://www.w3.org/2000/svg" width="275" height="193" fill="none" viewBox="0 0 275 193"><path fill="#102185" d="M94.76 88.83c-4.29-5.282-9.344-9.883-12.671-15.476-15.306-25.726-2.351-60.938 25.91-71.02 24.225-8.678 50.575 7.731 54.454 34.463 3.03 21.223-4.389 38.27-22.031 50.787l-2.506 1.67c.751.496 1.388.822 2.181 1.175 38.086 10.506 63.289 35.411 79.09 70.666a192 192 0 0 1 6.527 18.066c1.926 6.4-.793 9.911-7.419 10.01-69.094 1.02-138.189 2.039-207.41 3.03-8.113.142-12.715-6.102-10.195-13.776 11.044-34.122 31.135-61.08 62.893-78.566 9.444-5.055 19.553-8.764 29.931-10.789.312-.056.652-.255.963-.325l.27.07zm16.311 15.588c-3.525 4.318-6.626 8.17-9.996 11.95-4.007 4.488-6.57 5.253-11.907 2.775-5.791-2.449-11.299-5.423-16.722-8.651-1.076-.878-2.45-1.246-3.752-1.317-1.302-.056-2.76.425-3.837 1.161-23.263 13.777-39.502 33.57-50.178 58.249-1.869 4.191-3.27 8.792-5.154 13.564 4.39.028 7.93-.043 11.568.071 26.137-.085 26.18-.213 47.516-15.546 18.478-13.465 35.015-29.507 48.791-47.772.878-1.076 1.416-3.582.92-4.445-2.265-3.554-4.601-6.825-7.249-10.039M86.704 38.071c-.51 2.945-1.02 5.89-1.203 8.764-.156 2.747 0 5.423.311 8.014 2.082 19.34 19.695 32.791 37.775 28.912 26.18-5.65 38.795-39.63 22.3-60.995a7.56 7.56 0 0 0-5.111-2.266c-4.899-.311-9.798.41-14.597-.297-10.266-1.614-19.653.524-28.997 5.168-2.676 1.175-4.9 2.916-6.697 5.224-1.799 2.294-3.087 4.885-3.696 7.646l-.099-.17zm36.062 142.591 92.386-1.43c-3.965-19.426-25.982-52.84-38.399-58.418-15.178 21.846-33.711 40.861-53.987 59.862zm46.625-66.248a93.1 93.1 0 0 0-24.679-12.29c-.552-.141-1.161-.028-1.685.269-.481.156-1.047.595-1.429.935-2.393 2.874-4.659 5.776-6.811 8.863-16.976 24.14-36.628 45.647-60.811 62.836-2.719 1.897-5.296 3.837-8.793 6.414 2.478.085 3.809 0 5.253.113 7.66-.113 15.475-.779 23.078-.184 10.223.722 18.138-3.582 24.906-10.095 15.107-14.527 30.342-29.025 42.745-46.044 2.576-3.553 5.267-6.938 8.368-10.789l-.142-.042zm-88.506-11.752-.057 1.303c3.738 1.897 7.349 3.752 11.115 5.522.41.113.821.226 1.302.057.453-.029.836-.354 1.048-.595 2.818-3.341 5.536-6.853 8.354-10.209l-.694-1.217-21.054 5.125zm51.693-3.978-13.224-1.543-.566 1.019 7.079 9.557zM247.164 26.913c.297 4.673.439 9.204.878 13.876.878 10.619 5.564 15.56 16.183 17.372 1.699.284 3.257.553 4.956.836 2.831.566 4.814 1.968 4.969 4.941 0 2.974-1.685 4.672-4.658 5.253-3.256.722-6.513 1.43-9.769 2.294-8.071 2.28-12.163 7.532-12.417 15.886-.27 7.787-.524 15.716-.793 23.503-.128 4.814-1.544 7.079-4.517 7.376-2.973.284-5.805-2.534-6.244-7.065-.58-5.238-.736-10.477-1.6-15.716-.864-5.805-2.152-11.61-3.724-17.26-1.996-6.937-6.824-10.887-14.47-11.014-1.133 0-2.265-.283-3.398-.694-3.115-.85-5.38-2.535-4.687-6.358.567-2.973 4.093-5.252 7.349-4.969 9.911.821 18.392-4.856 20.36-14.484 1.119-5.522 1.104-11.469 1.373-17.132.142-2.973-.439-5.947.269-8.778.284-1.7 2.252-3.965 3.668-4.12 1.699-.142 3.964 1.26 5.238 2.534.991 1.132 1.006 3.398 1.147 5.097.142 2.832 0 5.663.014 8.495h-.283l.142.141zm-15.207 34.859 8.241 12.445 8.764-9.076-8.665-9.896z"/><path fill="#102185" d="M117.811 61.8c-2.407.227-4.871-.439-6.966-1.897-1.869-1.246-3.724-2.478-5.522-3.993-.467-.424-.807-.807-1.105-1.33-.297-.524-.424-1.147-.41-1.728 0-.58.028-1.16.17-1.713.141-.552.438-1.062.849-1.53.283-.509.708-.976 1.232-1.273.524-.298 1.048-.595 1.628-.581.623-.128 1.204-.113 1.756.042.552.156 1.09.298 1.572.723 4.191 3.483 8.863 3.582 13.804 3.171 1.204-.113 2.436.227 3.285.892a4.07 4.07 0 0 1 1.685 2.96c.113 1.203-.043 2.335-.892 3.284-.708.977-1.614 1.614-2.86 1.87-2.761.424-5.607.679-8.425.792l.199.354zM106.201 35.452c1.019-2.662 2.902-4.206 5.805-3.554.679.184 1.231.34 1.84.793.468.424.949.85 1.246 1.359.297.51.567 1.175.51 1.897.127.623-.057 1.303-.212 1.855-.156.552-.34 1.232-.751 1.699-.424.467-.849.949-1.501 1.203s-1.175.567-1.897.51c-.623.128-1.302-.056-1.855-.212-2.874-.779-3.752-2.931-3.284-5.734l.099.17zM134.731 41.158c-.142.552-.439 1.062-.85 1.529-.41.467-.807.807-1.33 1.105-.524.297-1.147.424-1.728.41-.58 0-1.161-.028-1.713-.17-.552-.141-1.232-.34-1.699-.75-.467-.425-.949-.85-1.246-1.36s-.566-1.175-.552-1.77c-.128-.622.056-1.302.212-1.854s.34-1.232.751-1.7c.424-.466.849-.948 1.359-1.245s1.147-.425 1.77-.552 1.161.028 1.854.212a3.9 3.9 0 0 1 1.671.892c.467.425.949.85 1.204 1.5.297.525.566 1.176.509 1.898.128.623-.056 1.303-.24 1.982l.042-.141z"/></svg>
